public/assets/rating.svg

<svg width="17" height="16" viewBox="0 0 17 16" fill="none" xmlns="http://www.w3.org/2000/svg">
<path d="M8.87662 0.527344L10.7542 6.306H16.8303L11.9146 9.87741L13.7922 15.6561L8.87662 12.0847L3.961 15.6561L5.8386 9.87741L0.922984 6.306H6.99902L8.87662 0.527344Z" fill="#FFC830"/>
</svg>

<svg width="17" height="16" fill="none" xmlns="http://www.w3.org/2000/svg"><path d="m8.877.527 1.877 5.779h6.076l-4.915 3.571 1.877 5.78-4.915-3.572-4.916 3.571 1.878-5.779L.923 6.306h6.076L8.877.527Z" fill="#FFC830"/></svg>
